Flat-Remix-Blue-Dark/apps/scalable/bulk-extractor.svg

<svg version="1.1" viewBox="0 0 512 512" xmlns="http://www.w3.org/2000/svg" xmlns:xlink="http://www.w3.org/1999/xlink"><defs><linearGradient id="d" x1="-25.965" x2="-266.14" y1="45.683" y2="174.33" gradientTransform="translate(-122.68 -54.246)" gradientUnits="userSpaceOnUse"><stop stop-color="#80c6ed" offset="0"/><stop stop-color="#39c1c8" offset="1"/></linearGradient><radialGradient id="a" cx="-133.05" cy="261.6" r="32.184" gradientTransform="matrix(1.8531 -2.1863 .54127 .45876 176.97 19.36)" gradientUnits="userSpaceOnUse"><stop stop-color="#808080" offset="0"/><stop stop-color="#ccc" stop-opacity="0" offset="1"/></radialGradient><linearGradient id="c" x1="-164.79" x2="-167.15" y1="253.4" y2="251.04" gradientTransform="translate(204.33 172)" gradientUnits="userSpaceOnUse"><stop stop-color="#fff" offset="0"/><stop stop-color="#e6e6e6" offset="1"/></linearGradient><linearGradient id="b" x1="166.13" x2="170.66" y1="262.82" y2="267.35" gradientTransform="translate(0 170.67)" gradientUnits="userSpaceOnUse"><stop stop-color="#fff" offset="0"/><stop stop-color="#e6e6e6" offset="1"/></linearGradient></defs><g transform="matrix(1.413 0 0 1.413 15.513 -226.79)"><path d="m29.385 430.71-1.7868 12.964-15.638 17.925 7.8012 14.412 4.1199 0.96097-2.1842-5.784 13.794-13.859c1.2745-1.2805 3.019-0.60809 4.2783-0.22129l5.016 1.5407c2.3598 0.72483 6.8664-2.1245 8.9338-3.9262l17.498-15.249 5.1116-9.7538-9.5973-11.736-5.9462-11.997z" fill="#e6e6e6"/><path d="m29.385 430.71-1.7868 12.964-15.638 17.925 9.7369 9.5894 13.794-13.859c1.2745-1.2805 3.019-0.60809 4.2783-0.22129l5.016 1.5407c2.3598 0.72483 6.8664-2.1245 8.9338-3.9262l17.498-15.249 5.1116-9.7538-9.5973-11.736-5.9462-11.997z" fill="url(#a)"/><path d="m29.385 430.71-1.7868 12.964-15.638 17.925 7.8012 14.412 4.1199 0.96097-2.1842-5.784 13.794-13.859c1.2745-1.2805 3.019-0.60809 4.2783-0.22129l5.016 1.5407c2.3598 0.72483 6.8664-2.1245 8.9338-3.9262l17.498-15.249 5.1116-9.7538-9.5973-11.736-5.9462-11.997z" fill="none" stroke="#000" stroke-linejoin="round" stroke-width="2"/><path d="m61.985 405.83-24.567 25.506-8.0325-0.62591 18.664-18.534-0.0507-3.0474 9.6696-3.7552z" fill="url(#c)"/><path d="m171.14 413.62s-16.915 18.389-18.673 23.367 4.3851 7.273 6.885 7.6152c6.5449 0.89616-6.198 24.022-17.213 35.781-2.0683 2.208-6.053 0.0788-9.0757 0.10432l4.59 13.561c3.4425 0.22448 7.6788 2.3035 10.328 0.10432 5.2503-4.3592 12.141-19.15 15.126-20.864 1.8098-1.0392 4.8722 2.7938 6.1548 1.1475 5.235-6.7199 13.191-20.138 20.551-29.939l-11.579-32.234z" fill="url(#b)"/><path d="m171.14 413.62s-16.915 18.389-18.673 23.367 4.3851 7.273 6.885 7.6152c6.5449 0.89616-6.198 24.022-17.213 35.781-2.0683 2.208-6.053 0.0788-9.0757 0.10432l4.59 13.561c3.4425 0.22448 7.6788 2.3035 10.328 0.10432 5.2503-4.3592 12.141-19.15 15.126-20.864 1.8098-1.0392 4.8722 2.7938 6.1548 1.1475 5.235-6.7199 13.191-20.138 20.551-29.939l-11.579-32.234z" fill="none" stroke="#000" stroke-linejoin="round" stroke-width="2"/><g transform="translate(473.28 249.21)"><path d="m-415.38 157.49 182.61-185.56c37.823-37.823 80.917-32.186 65.978-6.3113l-141.19 199.61c2.8264-0.12583 5.143 0.45926 6.7468 1.9183 9.6803 8.8064 13.151 24.727 15.973 35.259l133.88-200.54c22.477-38.931-13.862-106.25-96.704-23.407l-176.74 179.99c-2.5432 4.8403 6.2975-0.63933 9.4462-0.959z" fill="url(#d)"/><path d="m-179.99-55.112c-13.634 0.08429-33.864 8.1295-52.775 27.041l-182.61 185.56c4.5977 0.51029-1.1138 3.3723-0.20737 5.3931l5.4612 12.175c10.847 4.2473 11.492 8.6107 6.0166 13.205-0.51748 0.43421-0.22806 2.4037 0.56883 2.3506l3.9107-0.26057 187.25-197.22c17.696-17.696 31.052-14.381 35.123-12.721l10.465-14.795c7.4695-12.937 0.43088-20.815-13.203-20.73z" fill="#3b8bb8"/></g><path d="m293.64 188.21c-16.987 0.24229-39.97 10.976-68.447 39.453l-176.74 179.99c-2.5432 4.8403 6.2966-0.63932 9.4453-0.95899l182.61-185.56c3.3e-4 -3.3e-4 2e-3 3.4e-4 2e-3 0l-182.61 185.56c4.5977 0.51029-1.1154 3.3718-0.20898 5.3926l5.4609 12.174c10.847 4.2473 11.493 8.6105 6.0176 13.205-0.51748 0.43421-0.22854 2.4046 0.56836 2.3516l3.9121-0.25977 187.25-197.22c17.694-17.694 31.048-14.381 35.121-12.721l-130.72 184.81c2.8264-0.12583 5.1423 0.45893 6.7461 1.918 9.6803 8.8064 13.151 24.728 15.973 35.26l133.88-200.54c14.751-25.548 4.1716-63.322-28.258-62.859zm-0.35547 5.8809c0.82592-5e-3 1.6246 0.0235 2.4004 0.0762-0.77517-0.0526-1.5732-0.0793-2.3984-0.0742-2.5564 0.0158-5.3465 0.30959-8.3144 0.9043 2.9679-0.59479 5.7561-0.89045 8.3125-0.90625zm2.7109 0.10351c1.0488 0.0825 2.0533 0.21348 3 0.40039-0.94678-0.18684-1.9512-0.31796-3-0.40039zm-14.049 1.498c-2.0547 0.53079-4.1817 1.1979-6.3652 2.0059 2.1835-0.80802 4.3106-1.475 6.3652-2.0059z" fill="none" stroke="#000" stroke-linejoin="round" stroke-width="2"/><path d="m61.985 405.83-24.567 25.506-8.0325-0.62591 18.664-18.534-0.0507-3.0474 9.6696-3.7552z" fill="none" stroke="#000" stroke-linejoin="round" stroke-width="2"/></g><path d="m479.39 88.088c-0.73214 10.296-3.7107 20.654-9.0391 29.883l-189.17 283.36c-3.9875-14.882-8.6667-29.338-22.345-41.781-5.3627-2.6756-6.826-1.4129-7.9881-1.8542l-1.7686 1.1042c3.9937-0.1778 7.2671 0.64933 9.5332 2.7109 13.678 12.443 18.581 34.939 22.568 49.82l189.17-283.36c7.0645-12.236 10.007-26.454 9.0391-39.883z" opacity=".3"/><path d="m430.42 39.15c-24.002 0.34236-56.477 15.508-96.715 55.746l-249.73 254.32c-2.9584 5.6306 4.9437 1.4154 10.326-0.51562l239.4-243.81c40.238-40.238 72.713-55.404 96.715-55.746 30.291-0.43202 47.085 22.744 48.973 48.934 2.1304-29.975-14.866-59.42-48.973-58.934zm-2.5898 66.928-178.76 252.72c2.449-0.10902 4.6221 0.16383 6.4629 0.86328l178.25-252.01c-1.317-0.53687-3.3505-1.1823-5.957-1.5801zm-329.67 251.93 1.1621 2.5898c0.79078-1.1859 0.97235-2.156-1.1621-2.5898zm17.539 30.959c-0.67944 0.78941-1.497 1.5838-2.4492 2.3828-0.7312 0.61354-0.32329 3.3973 0.80273 3.3223l3.918-0.25977c0.20768-1.8366-0.49581-3.6505-2.2715-5.4453z" fill="#fff" opacity=".2"/></svg>

<?xml version="1.0" encoding="UTF-8" standalone="no"?>
<svg
   xmlns:dc="http://purl.org/dc/elements/1.1/"
   xmlns:cc="http://creativecommons.org/ns#"
   xmlns:rdf="http://www.w3.org/1999/02/22-rdf-syntax-ns#"
   xmlns:svg="http://www.w3.org/2000/svg"
   xmlns="http://www.w3.org/2000/svg"
   xmlns:xlink="http://www.w3.org/1999/xlink"
   height="512"
   width="512"
   id="svg6"
   viewBox="0 0 512.00002 512.00002"
   version="1.1">
  <metadata
     id="metadata12">
    <rdf:RDF>
      <cc:Work
         rdf:about="">
        <dc:format>image/svg+xml</dc:format>
        <dc:type
           rdf:resource="http://purl.org/dc/dcmitype/StillImage" />
        <dc:title></dc:title>
      </cc:Work>
    </rdf:RDF>
  </metadata>
  <defs
     id="defs10">
    <linearGradient
       id="linearGradient946">
      <stop
         id="stop942"
         offset="0"
         style="stop-color:#ffffff;stop-opacity:1" />
      <stop
         id="stop944"
         offset="1"
         style="stop-color:#e6e6e6;stop-opacity:1" />
    </linearGradient>
    <linearGradient
       id="linearGradient908">
      <stop
         id="stop904"
         offset="0"
         style="stop-color:#ffffff;stop-opacity:1;" />
      <stop
         id="stop906"
         offset="1"
         style="stop-color:#e6e6e6;stop-opacity:1" />
    </linearGradient>
    <linearGradient
       id="linearGradient894">
      <stop
         style="stop-color:#808080;stop-opacity:1"
         offset="0"
         id="stop890" />
      <stop
         style="stop-color:#cccccc;stop-opacity:0"
         offset="1"
         id="stop892" />
    </linearGradient>
    <linearGradient
       id="linearGradient844">
      <stop
         id="stop840"
         offset="0"
         style="stop-color:#80c6ed;stop-opacity:1" />
      <stop
         id="stop842"
         offset="1"
         style="stop-color:#39c1c8;stop-opacity:1" />
    </linearGradient>
    <linearGradient
       gradientTransform="translate(-122.6785,-54.245597)"
       gradientUnits="userSpaceOnUse"
       y2="174.32764"
       x2="-266.14154"
       y1="45.682724"
       x1="-25.965029"
       id="linearGradient846"
       xlink:href="#linearGradient844" />
    <radialGradient
       gradientUnits="userSpaceOnUse"
       gradientTransform="matrix(1.8530546,-2.1863334,0.54127364,0.45876334,176.97401,19.359803)"
       r="32.184044"
       fy="261.59872"
       fx="-133.04933"
       cy="261.59872"
       cx="-133.04933"
       id="radialGradient888"
       xlink:href="#linearGradient894" />
    <linearGradient
       gradientTransform="translate(204.32708,171.99777)"
       gradientUnits="userSpaceOnUse"
       y2="251.04251"
       x2="-167.14989"
       y1="253.40295"
       x1="-164.78941"
       id="linearGradient910"
       xlink:href="#linearGradient908" />
    <linearGradient
       gradientTransform="translate(0,170.67001)"
       gradientUnits="userSpaceOnUse"
       y2="267.3522"
       x2="170.6638"
       y1="262.81708"
       x1="166.12869"
       id="linearGradient948"
       xlink:href="#linearGradient946" />
  </defs>
  <g
     transform="matrix(1.4129915,0,0,1.4129915,15.513237,-226.79439)"
     id="g1024">
    <path
       style="opacity:1;fill:#e6e6e6;fill-opacity:1;stroke:none;stroke-width:1px;stroke-linecap:butt;stroke-linejoin:miter;stroke-opacity:1"
       d="m 29.385026,430.70754 -1.78675,12.96359 -15.63803,17.92472 7.801243,14.41236 4.119865,0.96097 -2.184218,-5.78397 13.79392,-13.85933 c 1.27446,-1.2805 3.01904,-0.60809 4.27833,-0.22129 l 5.01597,1.54069 c 2.35981,0.72483 6.8664,-2.12447 8.93384,-3.9262 l 17.49753,-15.24875 5.11161,-9.75382 -9.5973,-11.73582 -5.94615,-11.99663 z"
       id="path854" />
    <path
       style="opacity:1;fill:url(#radialGradient888);fill-opacity:1;stroke:none;stroke-width:1px;stroke-linecap:butt;stroke-linejoin:miter;stroke-opacity:1"
       d="m 29.385026,430.70754 -1.78675,12.96359 -15.63803,17.92472 9.73689,9.58936 13.79392,-13.85933 c 1.27446,-1.2805 3.01904,-0.60809 4.27833,-0.22129 l 5.01597,1.54069 c 2.35981,0.72483 6.8664,-2.12447 8.93384,-3.9262 l 17.49753,-15.24875 5.11161,-9.75382 -9.5973,-11.73582 -5.94615,-11.99663 z"
       id="path854-3" />
    <path
       style="opacity:1;fill:none;fill-opacity:1;stroke:#000000;stroke-width:2;stroke-linecap:butt;stroke-linejoin:round;stroke-miterlimit:4;stroke-dasharray:none;stroke-opacity:1"
       d="m 29.385026,430.70754 -1.78675,12.96359 -15.63803,17.92472 7.801243,14.41236 4.119865,0.96097 -2.184218,-5.78397 13.79392,-13.85933 c 1.27446,-1.2805 3.01904,-0.60809 4.27833,-0.22129 l 5.01597,1.54069 c 2.35981,0.72483 6.8664,-2.12447 8.93384,-3.9262 l 17.49753,-15.24875 5.11161,-9.75382 -9.5973,-11.73582 -5.94615,-11.99663 z"
       id="path854-36" />
    <path
       style="opacity:1;fill:url(#linearGradient910);fill-opacity:1;stroke:none;stroke-width:1px;stroke-linecap:butt;stroke-linejoin:miter;stroke-opacity:1"
       d="m 61.984546,405.82759 -24.567,25.50586 -8.03252,-0.62591 18.6644,-18.53377 -0.0507,-3.04738 9.66965,-3.7552 z"
       id="path852" />
    <path
       style="opacity:1;fill:url(#linearGradient948);fill-opacity:1;stroke:none;stroke-width:1px;stroke-linecap:butt;stroke-linejoin:miter;stroke-opacity:1"
       d="m 171.13679,413.62282 c 0,0 -16.91536,18.38918 -18.673,23.36733 -1.75764,4.97815 4.38513,7.27295 6.88502,7.61525 6.54487,0.89616 -6.19805,24.02249 -17.21255,35.78123 -2.06829,2.20804 -6.05299,0.0788 -9.0757,0.10432 l 4.59001,13.5614 c 3.44251,0.22448 7.6788,2.30348 10.32753,0.10432 5.2503,-4.35917 12.14144,-19.14983 15.12617,-20.8637 1.8098,-1.03922 4.87224,2.79385 6.15479,1.14751 5.235,-6.71989 13.19147,-20.13845 20.55074,-29.9394 l -11.57935,-32.2344 z"
       id="path940" />
    <path
       style="opacity:1;fill:none;fill-opacity:1;stroke:#000000;stroke-width:2;stroke-linecap:butt;stroke-linejoin:round;stroke-miterlimit:4;stroke-dasharray:none;stroke-opacity:1"
       d="m 171.13679,413.62282 c 0,0 -16.91536,18.38918 -18.673,23.36733 -1.75764,4.97815 4.38513,7.27295 6.88502,7.61525 6.54487,0.89616 -6.19805,24.02249 -17.21255,35.78123 -2.06829,2.20804 -6.05299,0.0788 -9.0757,0.10432 l 4.59001,13.5614 c 3.44251,0.22448 7.6788,2.30348 10.32753,0.10432 5.2503,-4.35917 12.14144,-19.14983 15.12617,-20.8637 1.8098,-1.03922 4.87224,2.79385 6.15479,1.14751 5.235,-6.71989 13.19147,-20.13845 20.55074,-29.9394 l -11.57935,-32.2344 z"
       id="path940-9" />
    <g
       id="g850"
       transform="translate(473.27602,249.20764)">
      <path
         style="opacity:1;fill:url(#linearGradient846);fill-opacity:1;stroke:none;stroke-width:1px"
         id="path4"
         d="m -415.37751,157.48983 182.61,-185.559999 c 37.823,-37.823 80.917,-32.186 65.978,-6.3113 l -141.19,199.609999 c 2.8264,-0.12583 5.143,0.45926 6.7468,1.9183 9.6803,8.8064 13.151,24.727 15.973,35.259 l 133.88,-200.5399988 c 22.477,-38.9310002 -13.862,-106.2500012 -96.704,-23.4070002 l -176.74,179.989999 c -2.54317,4.84028 6.29747,-0.63933 9.4462,-0.959 z" />
      <path
         id="path822"
         d="m -179.99182,-55.111888 c -13.634,0.08429 -33.86389,8.129516 -52.77539,27.041016 L -415.37659,157.48967 c 4.59771,0.51029 -1.11384,3.37227 -0.20737,5.39309 l 5.46119,12.17482 c 10.84711,4.24732 11.49234,8.61072 6.01662,13.20533 -0.51748,0.43421 -0.22806,2.4037 0.56883,2.35061 l 3.91073,-0.26057 187.25,-197.2187438 c 17.6958,-17.6957992 31.05158,-14.3810002 35.12305,-12.7207032 l 10.46484,-14.794922 c 7.4695,-12.937349 0.43088,-20.814756 -13.20312,-20.730469 z"
         style="opacity:1;fill:#3b8bb8;fill-opacity:1;stroke:none;stroke-width:1px;stroke-linecap:butt;stroke-linejoin:miter;stroke-opacity:1" />
    </g>
    <path
       style="opacity:1;fill:none;fill-opacity:1;stroke:#000000;stroke-width:2;stroke-linejoin:round;stroke-miterlimit:4;stroke-dasharray:none;stroke-opacity:1"
       d="m 293.63831,188.21351 c -16.98683,0.24229 -39.97033,10.97585 -68.44727,39.45313 L 48.452756,407.65688 c -2.54317,4.84028 6.29658,-0.63932 9.44531,-0.95899 L 240.50745,221.13734 c 3.3e-4,-3.3e-4 0.002,3.4e-4 0.002,0 L 57.900016,406.69789 c 4.59771,0.51029 -1.11545,3.37176 -0.20898,5.39258 l 5.46094,12.17383 c 10.84711,4.24732 11.4933,8.61047 6.01758,13.20508 -0.51748,0.43421 -0.22854,2.40465 0.56836,2.35156 l 3.9121,-0.25977 187.250004,-197.21875 c 17.69363,-17.69362 31.04785,-14.3812 35.1211,-12.7207 L 165.29651,414.43617 c 2.8264,-0.12583 5.14229,0.45893 6.74609,1.91797 9.6803,8.8064 13.15066,24.72777 15.97266,35.25977 L 321.89612,251.07289 c 14.75053,-25.54847 4.17159,-63.32191 -28.25781,-62.85938 z m -0.35547,5.88087 c 0.82592,-0.005 1.62463,0.0235 2.40039,0.0762 -0.77517,-0.0526 -1.57319,-0.0793 -2.39844,-0.0742 -2.55638,0.0158 -5.34647,0.30959 -8.31445,0.9043 2.96794,-0.59479 5.75612,-0.89045 8.3125,-0.90625 z m 2.71093,0.10351 c 1.04875,0.0825 2.05328,0.21348 3,0.40039 -0.94678,-0.18684 -1.95119,-0.31796 -3,-0.40039 z m -14.04882,1.49805 c -2.05467,0.53079 -4.18174,1.19791 -6.36524,2.00586 2.18346,-0.80802 4.3106,-1.47501 6.36524,-2.00586 z"
       id="path4-9" />
    <path
       style="opacity:1;fill:none;fill-opacity:1;stroke:#000000;stroke-width:2;stroke-linecap:butt;stroke-linejoin:round;stroke-miterlimit:4;stroke-dasharray:none;stroke-opacity:1"
       d="m 61.984546,405.82759 -24.567,25.50586 -8.03252,-0.62591 18.6644,-18.53377 -0.0507,-3.04738 9.66965,-3.7552 z"
       id="path852-6" />
  </g>
  <path
     id="path4-92"
     d="m 479.38867,88.087891 c -0.73214,10.295583 -3.71071,20.653919 -9.03906,29.882809 L 281.17773,401.33203 c -3.98746,-14.88163 -8.6667,-29.3379 -22.34488,-41.78127 -5.36271,-2.67559 -6.82605,-1.41288 -7.98812,-1.85418 l -1.76856,1.1042 c 3.99368,-0.1778 7.26706,0.64933 9.53321,2.71094 13.67818,12.44337 18.58089,34.93868 22.56835,49.82031 L 470.34961,127.9707 c 7.06448,-12.23593 10.00685,-26.45417 9.03906,-39.882809 z"
     style="opacity:0.3;fill:#000000;fill-opacity:1;stroke:none;stroke-width:1.41299152px" />
  <path
     id="path4-9-5"
     d="M 430.42188 39.150391 C 406.41964 39.492751 373.94471 54.658329 333.70703 94.896484 L 83.976562 349.2207 C 81.018134 354.85132 88.920266 350.6361 94.302734 348.70508 L 333.70703 104.89648 C 373.94471 64.658327 406.41964 49.492751 430.42188 49.150391 C 460.7125 48.718366 477.50685 71.894772 479.39453 98.083984 C 481.52489 68.108793 464.52856 38.663939 430.42188 39.150391 z M 427.83203 106.07812 L 249.07617 358.80078 C 251.52521 358.69176 253.69823 358.96461 255.53906 359.66406 L 433.78906 107.6582 C 432.4721 107.12133 430.43859 106.47586 427.83203 106.07812 z M 98.160156 358.00391 L 99.322266 360.59375 C 100.11305 359.40782 100.29462 358.4377 98.160156 358.00391 z M 115.69922 388.96289 C 115.01978 389.7523 114.20223 390.5467 113.25 391.3457 C 112.5188 391.95924 112.92671 394.74298 114.05273 394.66797 L 117.9707 394.4082 C 118.17838 392.57164 117.47489 390.75768 115.69922 388.96289 z "
     style="opacity:0.2;fill:#ffffff;fill-opacity:1;stroke:none;stroke-width:2.82598305;stroke-linejoin:round;stroke-miterlimit:4;stroke-dasharray:none;stroke-opacity:1" />
</svg>
